X: 20132
T: WILT THOU BE MY DEARIE
Q: "Largo"
%R: strathspey, air
B: "Edinburgh Repository of Music" v.2 p.13 #2
F: http://digital.nls.uk/special-collections-of-printed-music/pageturner.cfm?id=87776133
Z: 2015 John Chambers <jc:trillian.mit.edu>
M: C
L: 1/16
K: A
|:\
A3E F3E (A3E) E2 zE | A3B (dc)(BA) c2B2 (Bd)(cB) |\
A3E F3E (A3E) E4 :|
|:\
A3B c2c2 c2c2 {Bcd}c4 | {c}B3A B2ce f4 f2ga |\
{f}e3f (fe)(dc) f2B2 (Bd)(cB) | A3E F3E (A3c/B/ A4) :|

%%sep 2 1 500
%%sep 1 1 500

